X:1
T:Miss Henrietta Abernethie
T:Miss Henrietta Abernethie
T:Isaac Cooper
C:Isaac Cooper
L:1/8
M:4/4
K:C
V:1 treble 
V:1
 c>d e<c d<B c>A | G>cE>C D/D/D D2 | c>d e<c d<B c>A | G>EF>D C/C/C C2 :| C>EG>E c>ed>B | %5
 c>AG>E D/D/D D2 | C>EG>E c>ed>c | B/d/B G>B c/c/c c2 | C>EG>E c>ed>B | c>AG>E D/D/D D2 | %10
 g>ef>d e>cd>B | G>Bd>B c/c/c c2 || %12

